X: 35740
T: Sal's Got Mud Between Her Toes
R: reel
M: 4/4
K: Dmajor
A,B,|"D" D2 D2 DB,A,B,|D2 D2 F3 F|DDDD DB,A,B,|"G" B,DDE"D" D2 A,B,|
D2 D2 DB,A,B,|D2 D2 F3 F|D2 D2 DB,A,B,|"G" B, D2 E"D" D2 DE||
"D" F2 F2 FEDE|FAAB A2- AA|A3 B AFDE|"G" FE DF"A" E3 E|
"D" F2 A2 BAAA|BAGB A3 A|"G" BABd BADF|"A" ED- D2"D" D2 AB||
|:"D" d2 d2 dBAB|d2 d2 f4|f3 a fede|fe fa"A" e3 e|"D" fefa fedA|
"G" B2 d2 B2- Bc|"D" d2 B2"G" FEDF|"A" ED- D2"D" D2 AB:|

